X: 116
T: REEL: Boys of Ballinahinch
C: C: Trad.; S: Various
C: Set Leaders: Alexey, Anton
Z: Anton Zille ed.; JACKB at The Session
N: https://thesession.org/members/26966/sets/99333
R: Reel
M: 4/4
L: 1/8
Q: 1/2=100
K: Dmaj
ag|f2df edBA|B/c/d ef g2 ag|f2df edBc|dBAF EF D2|
fAdf edBA|B/c/d ef g2 ag|f2df edBc|dBAF EF D2||
faaf d3e|faaf g3e|faab afdf|gfed B2Ae|
faaf dcde|faaf g3a|bgaf gfed|B/c/d ef g2||

